svg/furkot/freepik/entertain.svg

<svg viewBox="0 0 512 512" xmlns="http://www.w3.org/2000/svg"><path d="m423 221v15c0 41.907-34.094 76-76 76h-9.518c-5.895-4.899-12.671-8.767-20.046-11.351 14.581-15.267 23.564-35.922 23.564-58.649 0-46.869-38.131-85-85-85s-85 38.131-85 85c0 22.727 8.983 43.382 23.563 58.649-7.375 2.584-14.151 6.452-20.046 11.351h-9.517c-41.906 0-76-34.093-76-76v-15h-89v15c0 86.266 66.547 157.27 151 164.4v106.6h210v-106.6c84.453-7.13 151-78.135 151-164.4v-15zm-167-216c-24.813 0-45 20.187-45 45s20.187 45 45 45 45-20.187 45-45-20.187-45-45-45zm-112 35c-24.813 0-45 20.187-45 45s20.187 45 45 45 45-20.187 45-45-20.187-45-45-45zm224 0c-24.813 0-45 20.187-45 45s20.187 45 45 45 45-20.187 45-45-20.187-45-45-45zm-313 70c-24.813 0-45 20.187-45 45s20.187 45 45 45 45-20.187 45-45-20.187-45-45-45zm402 0c-24.813 0-45 20.187-45 45s20.187 45 45 45 45-20.187 45-45-20.187-45-45-45z"/></svg>

<svg xmlns="http://www.w3.org/2000/svg" viewBox="0 0 512 512"><path d="M423 221v15c0 41.907-34.094 76-76 76h-9.518c-5.895-4.899-12.671-8.767-20.046-11.351C332.017 285.382 341 264.727 341 242c0-46.869-38.131-85-85-85-46.869 0-85 38.131-85 85 0 22.727 8.983 43.382 23.563 58.649-7.375 2.584-14.151 6.452-20.046 11.351H165c-41.906 0-76-34.093-76-76v-15H0v15c0 86.266 66.547 157.27 151 164.4V507h210V400.4c84.453-7.13 151-78.135 151-164.4v-15H423zM256 5c-24.813 0-45 20.187-45 45s20.187 45 45 45 45-20.187 45-45S280.813 5 256 5zM144 40c-24.813 0-45 20.187-45 45s20.187 45 45 45 45-20.187 45-45S168.813 40 144 40zM368 40c-24.813 0-45 20.187-45 45s20.187 45 45 45 45-20.187 45-45S392.813 40 368 40zM55 110c-24.813 0-45 20.187-45 45s20.187 45 45 45 45-20.187 45-45S79.813 110 55 110zM457 110c-24.813 0-45 20.187-45 45s20.187 45 45 45 45-20.187 45-45S481.813 110 457 110z"/></svg>
